albertroad.htmlalbertroad.htmlalbertroad.htmlalbertroad.htmlalbertroad.htmlalbertroad.htmlalbertroad.htmlalbertroad.htmlalbertroad.htmlFrom <I>Dervish: Playing with Fire</I>
albertroad.htmlalbertroad.html<PRE>T:Graf Spey, The
T:Graf Spey, The
M:4/4
L:1/8
R:reel
D:Dervish: Playing with Fire
Z:Devin McCabe
K:C
E2CD E~G3 | AGcG AGcG | EDCD EGG2 | AGcG EDDF |
!E2CD E~G3 | AGcG AGcG | EDCD E~G3 | AGcG EDD2 |
!e3d cBcA | G~E3 GAcd | eged cecd | ecae gedg |
!e3d ~c3A | G~E3 GAcd | eaag eged | cAGE EDDd |
!e~g3 gecd | eaag abag | eged cecd | ecae gedg |
!e~g3 gede | ~a3a abag | eged cecd | ecae gedg |
!eccB cAGE | GA (3Bcd edcA | GAcd ecdc | AGcE EDDf |
!e~c3 cAGE | GA (3Bcd edcA | GAcd ecdB | cAGE ED (3DDD |
!egcg egcg | fada fadf | eged cBcd | e2a^f gedg |
!eaa^f gedB | c2ed cAGE | GAcd ecdB | cAGE EDDF |

%  ABC2Win Version 2.1 1/19/2001
albertroad.htmlalbertroad.htmlalbertroad.htmlalbertroad.htmlalbertroad.htmlalbertroad.htmlalbertroad.html